X:1
T:Title
%%score { ( 1 4 ) | ( 2 3 ) }
L:1/8
M:4/4
K:Eb
V:1 treble nm="Grand Piano"
V:4 treble 
V:2 bass 
V:3 bass 
V:1
 z4 z2[Q:1/4=100] G2 | B2 Bc B2 G[GB] | [GB]A[B,FA][B,EG] [B,FA]2 [B,DB]2 | %3
 [B,EG]2 [B,EG][B,FA] [B,GB]2 [B,FA][B,EG] |[M:3/4] [B,DF]6 |[M:1/4] [B,EG]2 | %6
[M:4/4] [EGB]2 [EGB][EAc] [EGB]2 [B,EG][B,GB] | .[B,FB]2 [B,FA][B,EG] [B,DF]2 [DB]2 | %8
 [G,E]2 [A,CF][CFA] [EG][EG] [DF]2 |[M:3/4] E6 |[M:1/4] B2 |[M:4/4] c2 cc e2 dc | %12
 B2 [GB][FA] G2 GG | [DB]6[K:bass][K:treble] z2 |[M:3/4] [EG]6 |[M:1/4] [EGB]2 | %16
[M:4/4] [EAc]2 [EAc][EAc] [Ece]2 [EBd][EAc] | [EGB]2 [B,FB][B,FA] [B,EG]2 [B,EG]2 | %18
 [DB]2 [DF][EG] [FA]2 [EG][DF] |[M:3/4] E6 |] %20
V:2
 z4 z2 [E,B,E]2 | [E,G,E]2 [E,G,E][E,A,E] [E,G,E]2 [E,B,E][E,B,] | [E,B,]2 z2 z4 | %3
 E,2 E,E, E,2 D,E, |[M:3/4] B,,6 |[M:1/4] E,2 |[M:4/4] E,2 E,E, E,2 E,E, | z AE,E, B,,2 [B,,A,]2 | %8
 C,2 A,,A,, [B,,B,][B,,B,] [B,,A,]2 |[M:3/4] [E,G,]6 |[M:1/4] [E,G,E]2 | %11
[M:4/4] [A,E]2 [A,E][A,E] [A,CE]2 [A,B,E][A,E] | [E,G,E]2 [E,B,][E,B,] [E,B,E]2 [E,B,E][E,B,E] | %13
 [B,,B,]2 B,,B,, B,,2 B,,B,, |[M:3/4] E,2 E,E, E,2 |[M:1/4] E,2 |[M:4/4] A,2 A,A, A,2 A,A, | %17
 E,2 D,B,, E,2 E,2 | [B,,B,]2 [B,,B,][B,,B,] [B,,B,]2 [B,,B,][B,,A,] |[M:3/4] [E,G,]6 |] %20
V:3
 x8 | x8 | z FE,G, B,,2 B,,2 | x8 |[M:3/4] x6 |[M:1/4] x2 |[M:4/4] x8 | D,2 z2 z4 | x8 | %9
[M:3/4] x6 |[M:1/4] x2 |[M:4/4] x8 | x8 | x8 |[M:3/4] x6 |[M:1/4] x2 |[M:4/4] x8 | x8 | x8 | %19
[M:3/4] x6 |] %20
V:4
 x8 | x8 | x8 | x8 |[M:3/4] x6 |[M:1/4] x2 |[M:4/4] x8 | x8 | x8 |[M:3/4] x6 |[M:1/4] x2 | %11
[M:4/4] x8 | x8 | z2[K:bass] F,F, F,2[K:treble] [B,DF][B,FA] |[M:3/4] B,2 B,B, B,2 |[M:1/4] x2 | %16
[M:4/4] x8 | x8 | x8 |[M:3/4] x6 |] %20

